X:1
T:Or suis ie bien
T:Or suis ie bien
T:Adriaan Willaert
T:Source : Trium vocum cantiones---Nürnberg---J.Petreius---1541. Editor : André Vierendeels (03/09/15)
T:Notes : Original clefs : C1, C3, C3 Editorial accidentals above the staff Original note values have been halved
C:Adriaan Willaert
%%score [ 1 [ 2 3 ] ]
L:1/8
Q:1/4=75
M:2/2
K:F
V:1 treble nm="Discantus" snm="D"
V:2 treble-8 nm="Tenor 1" snm="T 1"
V:3 treble-8 nm="Tenor 2" snm="T 2"
V:1
 z4 z2 G2 | A4 B4 | A2 B3 AGF | G4 F4 | z2 G2 A2 G2 | G2 F2 G4- | G4 z2 G2 | A4 B4 | A2 B3 AGF | %9
w: Or|suis ie|bien au _ _ _|pi- re|de mes mal-|heu- reux iours,|_ mon|cas fort|trop sem- * * *|
 G4 F4 | z2 G2 A2 G2 |"^#" G2 F2 G4- | G4 z4 | z4 A2 AA | A2 B4 A2 | G4 F4- | F8 | z8 | %18
w: pi- re|et me vient|à re- bours,|_|et tout ce-|la me font|a- mours,|_||
 G2 GG F2 G2 | A2 GF ED A2- | A2 GF E4 | D2 z D F4 | G4 A4- | A2 B4 A2 | G4 F2 D2 | F4 G4 | %26
w: en- du- rer grief mar-|ti- * * * * *||re, si nay|de vous|_ aul- tre|se- cours, si|nay de|
 A6 B2- | B2 A2 G4 | F4 z4 | z2 B2 B2 A2 | G4 z2 F2 | G2 A3 G G2- | G2 F2 G4 | z2 B2 B2 A2 | %34
w: vous aul-|* tre se-|cours,|for- ce se-|ra, que|me re- * ti-|* * re,|for- ce se-|
 G2 F2 G2 A2- | AG G4 F2 | G8 |] %37
w: ra que me re-|* * ti- *|re.|
V:2
 z2 d2 e4 | f4 d4 | z2 d2 d4 | c4 d4 | A2 c3 BAG | A4 G4 | z2 g2 a2 g2 | g2 f2 g2 z d | %8
w: Or suis|ie bien,|or suis|ie bien|au pi- * * *|* re|de mes mal-|heu- reux iours, mon|
 c2 d2 G2 d2 | dccB d2 d2 |"^b" e3 d c2 B2 | A4 G4- | G4 z2 c2 | cc c2 d2 d2 | c2 Bc de f2- | %15
w: cas fort trop sem-|pi- * * * re et|me _ vient à|re- bours,|_ et|tout ce- la me font|a- mours, _ _ _ _|
 f2 e2 f4 | c2 cc B2 c2 | d2 cB A2 G2 | B3 c d2 e2 | f2 ed c2 f2- | fe d4 c2 | d4 z2 F2 | B4 c4 | %23
w: _ _ _|en- du- rer grief mar-|ti- * * re, en|du- rer grief mar-|ti- * * * *||re si|nay de|
 d6 f2- | f2 e2 d3 c | de f4 e2 | f8 | z2 f2 f2 e2 | d2 c2 d2 e2 | fedc Bc d2- | d2 c2 d2 A2 | %31
w: vous aul-|* tre se- *||cours,|for- ce se-|ra, que me re-|ti- * * * * * *|* * re, que|
 B2 AG F2 G2 | A4 G4 | z4 z2 A2 | B2 A2 G2 c2 | c2 B2 A4 | G8 |] %37
w: me _ _ _ re-|ti- re,|for-|ce se- ra, que|me re- ti-|re.|
V:3
 G4 G4 | F4 G4 | D2 G3 FED | E4 D3 D | D2 C2 F2 G2 | D4 z2 d2 |"^b" e3 d c2 B2 | A6 G2 | %8
w: Or suis|ie bien|au pi- * * *|* re de|mes mal- heu- reux|iours, de|mes mal- heu- reux|iours, mon|
 A2 G2 G2 F2 | E4 D3 D | C2 C2 F2 G2 | D4 z4 | E2 EE E2 F2 | F2 E2 DEFG | A2 G4 F2 | c4 F4- | %16
w: cas fort trop sem-|pi- re, et|me vient à re-|bours,|et tout ce- la me|font a- mours, _ _ _|_ me font|a- mours,|
 F4 z2 F2 | FF E2 F2 G2- | GF E2 D2 C2 | F3 G A2 D2 | F2 G2 A4 | B6 A2 | G4 F4 | z4 z2 F2 | %24
w: _ en-|du- rer grief mar- ti-||* * re, si|nay de vous|aul- tre|se- cours,|si|
 B2 c2 d2 B2- | B2 A2 G4 | F2 d3 cBA | G2 F2 c4 | z2 F2 F2 E2 | D2 G2 G2 F2 |"^#" E4 D4 | %31
w: nay de vous aul-||tre se- * * *|* * cours,|for- ce se-|ra, que me re-|ti- re,|
 z2 F2 F2 E2 | D4 B2 B2 | A2 G4 F2 | G2 D2 E2 F2- | F2 G2 D4 | G8 |] %37
w: for- ce se-|ra, for- ce|se- ra que|me _ _ _|_ re- ti-|re.|

